epam-assets/icon-sources/18/social-network-github.svg

<svg width="18" height="18" viewBox="0 0 18 18" fill="none" xmlns="http://www.w3.org/2000/svg">
<path fill-rule="evenodd" clip-rule="evenodd" d="M9 1.5C4.85786 1.5 1.5 4.85786 1.5 9C1.5 12.315 3.6525 15.1275 6.63 16.125C7.005 16.185 7.125 15.9525 7.125 15.75C7.125 15.5775 7.125 15.105 7.125 14.4825C5.0475 14.9325 4.605 13.4775 4.605 13.4775C4.26 12.6075 3.7725 12.375 3.7725 12.375C3.09 11.91 3.825 11.925 3.825 11.925C4.575 11.9775 4.9725 12.6975 4.9725 12.6975C5.625 13.8375 6.7275 13.5 7.155 13.32C7.2225 12.8325 7.4175 12.5025 7.6275 12.315C5.9625 12.1275 4.215 11.4825 4.215 8.625C4.215 7.7925 4.5 7.125 4.9875 6.5925C4.9125 6.405 4.65 5.625 5.0625 4.6125C5.0625 4.6125 5.6925 4.41 7.125 5.3775C7.7175 5.2125 8.3625 5.13 9 5.13C9.6375 5.13 10.2825 5.2125 10.875 5.3775C12.3075 4.41 12.9375 4.6125 12.9375 4.6125C13.35 5.625 13.0875 6.405 13.0125 6.5925C13.5 7.125 13.785 7.7925 13.785 8.625C13.785 11.49 12.03 12.12 10.3575 12.3075C10.6275 12.54 10.875 12.9975 10.875 13.695C10.875 14.7 10.875 15.51 10.875 15.75C10.875 15.9525 10.995 16.1925 11.3775 16.125C14.355 15.12 16.5 12.315 16.5 9C16.5 7.01088 15.7098 5.10322 14.3033 3.6967C12.8968 2.29018 10.9891 1.5 9 1.5Z" fill="#6C6F80"/>
</svg>

<svg xmlns="http://www.w3.org/2000/svg" width="18" height="18" fill="none" viewBox="0 0 18 18">
  <path fill="#6C6F80" fill-rule="evenodd" d="M9 1.5A7.5 7.5 0 0 0 1.5 9c0 3.315 2.152 6.127 5.13 7.125.375.06.495-.172.495-.375v-1.268c-2.077.45-2.52-1.005-2.52-1.005-.345-.87-.833-1.102-.833-1.102-.682-.465.053-.45.053-.45.75.052 1.147.772 1.147.772.653 1.14 1.755.803 2.183.623.067-.488.263-.818.473-1.005-1.665-.188-3.413-.832-3.413-3.69 0-.832.285-1.5.772-2.032-.075-.188-.337-.968.075-1.98 0 0 .63-.203 2.063.764A7.067 7.067 0 0 1 9 5.13c.637 0 1.283.083 1.875.248 1.432-.968 2.063-.766 2.063-.766.412 1.013.15 1.793.074 1.98.488.533.773 1.2.773 2.033 0 2.865-1.755 3.495-3.428 3.682.27.233.518.69.518 1.388v2.055c0 .203.12.442.502.375C14.355 15.12 16.5 12.315 16.5 9A7.5 7.5 0 0 0 9 1.5Z" clip-rule="evenodd"/>
</svg>
